alecto/img/svg/activity.svg

<svg xmlns="http://www.w3.org/2000/svg" width="72" height="53"><path d="M71.727 20.969L63.257 1.89a3.179 3.179 0 00-2.904-1.891 3.18 3.18 0 00-3.098 2.473L48.888 39.33 37.88 12.57a3.179 3.179 0 00-2.938-1.971 3.173 3.173 0 00-2.92 1.93L22.014 35.904 16.609 25.08a3.177 3.177 0 00-5.284-.615L.737 37.184a3.18 3.18 0 002.44 5.215c.98 0 1.859-.445 2.44-1.144l7.478-8.984 6.297 12.609a3.177 3.177 0 005.764-.17l9.726-22.721 11.945 29.039a3.177 3.177 0 006.036-.501l8.471-37.311 4.586 10.333a3.179 3.179 0 002.904 1.89 3.179 3.179 0 002.903-4.47z"/></svg>

<svg 
 xmlns="http://www.w3.org/2000/svg"
 xmlns:xlink="http://www.w3.org/1999/xlink"
 width="72px" height="53px">
<path
 d="M71.727,20.969 L63.257,1.890 C62.763,0.777 61.648,-0.001 60.353,-0.001 C58.842,-0.001 57.578,1.056 57.255,2.472 L48.888,39.330 L37.880,12.570 C37.405,11.414 36.267,10.599 34.942,10.599 C33.631,10.599 32.505,11.394 32.022,12.529 L22.014,35.904 L16.609,25.080 C16.088,24.036 15.010,23.319 13.765,23.319 C12.785,23.319 11.906,23.765 11.325,24.465 L0.737,37.184 C0.278,37.737 0.000,38.445 0.000,39.219 C0.000,40.975 1.423,42.399 3.177,42.399 C4.157,42.399 5.036,41.954 5.617,41.255 L13.095,32.271 L19.392,44.880 C19.913,45.923 20.991,46.639 22.236,46.639 C23.547,46.639 24.672,45.844 25.156,44.710 L34.882,21.989 L46.827,51.028 C47.302,52.185 48.440,52.999 49.765,52.999 C51.277,52.999 52.540,51.941 52.863,50.527 L61.334,13.216 L65.920,23.549 C66.415,24.662 67.529,25.439 68.824,25.439 C70.577,25.439 72.000,24.015 72.000,22.259 C72.000,21.801 71.903,21.363 71.727,20.969 Z"/>
</svg>
